src/icons/hds/ui/wifi-crossed.svg

<svg xmlns="http://www.w3.org/2000/svg" width="24" height="24" viewBox="0 0 24 24">
  <g fill="none" fill-rule="evenodd">
    <rect width="24" height="24"/>
    <path fill="currentColor" d="M19.7928932,2.79289322 L21.2071068,4.20710678 L4.70710678,20.7071068 L3.29289322,19.2928932 L19.7928932,2.79289322 Z M12,17.5338354 C12.8284271,17.5338354 13.5,18.2054082 13.5,19.0338354 C13.5,19.8622625 12.8284271,20.5338354 12,20.5338354 C11.1715729,20.5338354 10.5,19.8622625 10.5,19.0338354 C10.5,18.2054082 11.1715729,17.5338354 12,17.5338354 Z M13.5254462,14.0083832 C14.4727397,14.2859092 15.373962,14.791749 16.1404214,15.5228594 L16.2516758,15.6315208 L14.8374622,17.0457344 C13.9783696,16.1866418 12.8660747,15.756144 11.7776909,15.7561183 L13.5254462,14.0083832 Z M10.9645404,9.50059697 L7.98999071,12.4750268 C7.34406287,12.827805 6.73438058,13.2713078 6.17967342,13.8055246 L6.06398755,13.9190556 L4.64977399,12.504842 C6.41691842,10.7376976 8.65951047,9.73612991 10.9645404,9.50059697 Z M16.8890428,10.6458447 C17.7397646,11.0948905 18.5412288,11.6700271 19.265876,12.3712848 L19.3899021,12.4932944 L17.9756886,13.907508 C17.2083379,13.1401573 16.3293401,12.5522588 15.3907533,12.143783 L16.8890428,10.6458447 Z M20.1299932,7.40667762 C20.9124692,7.91737624 21.6574048,8.50935281 22.3528507,9.18260732 L22.5281285,9.35506802 L21.113915,10.7692816 C20.3646346,10.0200012 19.5459467,9.38243069 18.678547,8.85656998 L20.1299932,7.40667762 Z M15.135216,5.32945928 L13.3919886,7.07353461 C9.72139535,6.68054989 5.91410697,7.86271103 3.06591535,10.620018 L2.91421356,10.7692816 L1.5,9.35506802 C5.20193782,5.6531302 10.370234,4.31126062 15.135216,5.32945928 Z"/>
  </g>
</svg>

<svg viewBox="0 0 24 24" role="img" xmlns="http://www.w3.org/2000/svg"><g fill="none" fill-rule="evenodd"><path d="M0 0h24v24H0z"/><path d="M19.793 2.793l1.414 1.414-16.5 16.5-1.414-1.414 16.5-16.5zM12 17.533a1.5 1.5 0 110 3 1.5 1.5 0 010-3zm1.525-3.525a6.389 6.389 0 012.615 1.515l.112.109-1.415 1.414a4.335 4.335 0 00-3.06-1.29l1.748-1.748zm-2.56-4.507L7.99 12.475a8.44 8.44 0 00-1.81 1.33l-.116.114-1.414-1.414A10.398 10.398 0 0110.965 9.5zm5.924 1.145c.85.449 1.652 1.024 2.377 1.725l.124.122-1.414 1.415a8.379 8.379 0 00-2.585-1.764l1.498-1.498zm3.241-3.24c.782.511 1.527 1.103 2.223 1.777l.175.172-1.414 1.414a12.9 12.9 0 00-2.435-1.912l1.451-1.45zM15.135 5.33l-1.743 1.745c-3.67-.393-7.478.789-10.326 3.546l-.152.15L1.5 9.354c3.702-3.702 8.87-5.044 13.635-4.026z" fill="currentColor"/></g></svg>
